rospo-dark/16x16/actions/window-duplicate.svg

<svg height="16" viewBox="0 0 16 16" width="16" xmlns="http://www.w3.org/2000/svg"><path d="m2 1s-.0762406.0041375-.1816406.0234375c-.2042.0302-.3586563.103425-.4726563.203125-.0221.0169-.0434531.0350875-.0644531.0546875-.0196.021-.0377875.0423531-.0546875.0644531-.0997.114-.172925.2684563-.203125.4726563-.0193.1054-.0234375.1816406-.0234375.1816406v12c0 1 1 1 1 1h6v-2h-5v-7h10v2h2v-6s-.004437-.0762406-.023438-.1816406c-.031-.2042-.103125-.3586563-.203124-.4726563-.017-.0221-.035688-.0434531-.054688-.0644531-.021-.0196-.042453-.0377875-.064453-.0546875-.114-.0997-.268656-.172925-.472656-.203125-.106-.0193-.181641-.0234375-.181641-.0234375zm7.5 8s-.0371438.0020187-.0898438.0117188c-.1021.0151-.1793281.0517624-.2363281.1015624-.0111.0085-.0227031.0175438-.0332031.0273438-.01.0105-.0188437.0222031-.0273438.0332031-.0497999.057-.0864625.1342281-.1015624.2363281-.01.0527-.0117188.0898438-.0117188.0898438v6c0 .5.5.5.5.5h6s .5 0 .5-.5v-6s-.001719-.0371438-.011719-.0898438c-.015-.1021-.051562-.1793281-.101562-.2363281-.008-.011-.017344-.0227031-.027344-.0332031-.01-.0098-.022203-.0188437-.033203-.0273438-.057-.0497999-.134328-.0864625-.236328-.1015624-.053-.0097001-.089844-.0117188-.089844-.0117188zm.5 3h5v3h-5z" fill="#d3dae3"/></svg>

<?xml version="1.0" encoding="UTF-8" standalone="no"?>
<svg xmlns="http://www.w3.org/2000/svg" width="22" height="22" viewBox="0 0 22 22">
 <defs>
  <style type="text/css" id="current-color-scheme">
   .ColorScheme-Text { color:#d3dae3; } .ColorScheme-Highlight { color:#5294e2; }
  </style>
 </defs>
 <path style="fill:currentColor;opacity:1" class="ColorScheme-Text" transform="translate(3 3)" d="M 2 1 C 2 1 1.9237594 1.0041375 1.8183594 1.0234375 C 1.6141594 1.0536375 1.4597031 1.1268625 1.3457031 1.2265625 C 1.3236031 1.2434625 1.30225 1.26165 1.28125 1.28125 C 1.26165 1.30225 1.2434625 1.3236031 1.2265625 1.3457031 C 1.1268625 1.4597031 1.0536375 1.6141594 1.0234375 1.8183594 C 1.0041375 1.9237594 1 2 1 2 L 1 14 C 1 15 2 15 2 15 L 8 15 L 8 13 L 3 13 L 3 6 L 13 6 L 13 8 L 15 8 L 15 2 C 15 2 14.995563 1.9237594 14.976562 1.8183594 C 14.945562 1.6141594 14.873437 1.4597031 14.773438 1.3457031 C 14.756438 1.3236031 14.73775 1.30225 14.71875 1.28125 C 14.69775 1.26165 14.676297 1.2434625 14.654297 1.2265625 C 14.540297 1.1268625 14.385641 1.0536375 14.181641 1.0234375 C 14.075641 1.0041375 14 1 14 1 L 2 1 z M 9.5 9 C 9.5 9 9.4628562 9.0020187 9.4101562 9.0117188 C 9.3080562 9.0268188 9.2308281 9.0634812 9.1738281 9.1132812 C 9.1627281 9.1217812 9.151125 9.130825 9.140625 9.140625 C 9.130625 9.151125 9.1217813 9.1628281 9.1132812 9.1738281 C 9.0634813 9.2308281 9.0268187 9.3080562 9.0117188 9.4101562 C 9.0017188 9.4628562 9 9.5 9 9.5 L 9 15.5 C 9 16 9.5 16 9.5 16 L 15.5 16 C 15.5 16 16 16 16 15.5 L 16 9.5 C 16 9.5 15.998281 9.4628562 15.988281 9.4101562 C 15.973281 9.3080562 15.936719 9.2308281 15.886719 9.1738281 C 15.878719 9.1628281 15.869375 9.151125 15.859375 9.140625 C 15.849375 9.130825 15.837172 9.1217813 15.826172 9.1132812 C 15.769172 9.0634813 15.691844 9.0268187 15.589844 9.0117188 C 15.536844 9.0020187 15.5 9 15.5 9 L 9.5 9 z M 10 12 L 15 12 L 15 15 L 10 15 L 10 12 z"/>
</svg>
